X: 27
T: String Quartet No. 7 in F Major, Op. 59, No. 1 mvt 2
C: Ludwig van Beethoven
%%abc-version 2.0
%%abcx-abcm2ps-target-version 5.9.1 (29 Sep 2008)
%%abc-creator hum2abc beta
%%abcx-conversion-date 2021/01/27 10:01:12
%%abc-edited-by Craig Stuart Sapp
%%abcx-initial-encoding-date 2004/09/09/
%%gracespace 0 6 6
%%humdrum-veritas 1213372014
%%humdrum-veritas-data 563075843
%%linebreak <none>
%%barnumbers 0
L: 1/16
M: 3/8
N: Derived from quartet07-2.krn
Q: "Allegretto vivace e sempre scherzando" 3/8=60
%%staves [1 2 3 4]
V: 1 clef=treble
V: 2 clef=treble
V: 3 clef=alto
V: 4 clef=bass
K: Bb
[V:1] z6 | 
[V:2] z6 | 
[V:3] z6 | 
[V:4] .B,,.B,, .B,,2.B,,2 | 
[V:1] z6 | 
[V:2] z6 | 
[V:3] z6 | 
[V:4] .B,,.B,, .B,,2.B,,2 | 
[V:1] z6 | 
[V:2] z6 | 
[V:3] z6 | 
[V:4] .B,,.B,,.B,,.B,,.B,,.B,, | 
[V:1] z6 | 
[V:2] z2 z .F.B.d | 
[V:3] z6 | 
[V:4] .B,,6 | 
[V:1] z6 | 
[V:2] .c.B.A.G.A.F | 
[V:3] z6 | 
[V:4] z6 | 
[V:1] z6 | 
[V:2] .B.d2< !accent!f2.d | 
[V:3] z6 | 
[V:4] z6 | 
[V:1] z6 | 
[V:2] .c.A.B.G.c.=E | 
[V:3] z6 | 
[V:4] z6 | 
[V:1] z6 | 
[V:2] F6 | 
[V:3] z6 | 
[V:4] z6 | 
[V:1] z6 | 
[V:2] z6 | 
[V:3] ._A,.A, .A,2.A,2 | 
[V:4] z6 | 
[V:1] z6 | 
[V:2] z6 | 
[V:3] ._A,.A, .A,2.A,2 | 
[V:4] z6 | 
[V:1] z6 | 
[V:2] z6 | 
[V:3] ._A,.A,.A,.A,.A,.A, | 
[V:4] z6 | 
[V:1] z2 z .e._a.c' | 
[V:2] z6 | 
[V:3] _A,6 | 
[V:4] z6 | 
[V:1] .b._a.g.f.g.e | 
[V:2] z6 | 
[V:3] z6 | 
[V:4] z6 | 
[V:1] ._a.c'2<e'2c' | 
[V:2] z6 | 
[V:3] z6 | 
[V:4] z6 | 
[V:1] .b.g._a.f.b.d | 
[V:2] z6 | 
[V:3] z6 | 
[V:4] z6 | 
[V:1] e6 | 
[V:2] z6 | 
[V:3] z6 | 
[V:4] z6 | 
[V:1] z6 | 
[V:2] z6 | 
[V:3] .E.E .E2.E2 | 
[V:4] ._C.C .C2.C2 | 
[V:1] z6 | 
[V:2] ._c.c .c2.c2 | 
[V:3] .E.E .E2.E2 | 
[V:4] ._C.C .C2.C2 | 
[V:1] ._g.g .g2.g2 | 
[V:2] ._c.c .c2.c2 | 
[V:3] .E.E .E2.E2 | 
[V:4] ._C.C .C2.C2 | 
[V:1] _gggggg | 
[V:2] _cccccc | 
[V:3] EEEEEE | 
[V:4] _CCCCCC | 
[V:1] f6- | 
[V:2] A6- | 
[V:3] E6- | 
[V:4] C6- | 
[V:1] f6 | 
[V:2] A6 | 
[V:3] E6 | 
[V:4] C6 | 
[V:1] d2c2B2 | 
[V:2] B2A2G2 | 
[V:3] F2E2D2 | 
[V:4] B,2F,2G,2 | 
[V:1] e>c B2A2 | 
[V:2] G2F2F2 | 
[V:3] G,>C D2C2 | 
[V:4] E,2F,2E,2 | 
[V:1] f2e2d2 | 
[V:2] F2E2D2 | 
[V:3] B,2A,2B,2 | 
[V:4] D,2C,2B,,2 | 
[V:1] g>e d2c2 | 
[V:2] G>E D2C2 | 
[V:3] E>C B,2A,2 | 
[V:4] E,,2F,,2E,,2 | 
[V:1] f>d.c2 z2 | 
[V:2] F>F .G2 z2 | 
[V:3] B,>D .G,2 z2 | 
[V:4] D,,>B,, .E,2 z2 | 
[V:1] z2 .A2 z2 | 
[V:2] z2 .E2 z2 | 
[V:3] z2 .C2 z2 | 
[V:4] z2 .F,2 z2 | 
[V:1] [DB][DB] [D2B2][D2B2] | 
[V:2] [B,D][B,D] [B,2D2][B,2D2] | 
[V:3] F,F, F,2F,2 | 
[V:4] B,,B,, B,,2B,,2 | 
[V:1] [DB][DB] [D2B2][D2B2] | 
[V:2] [B,D][B,D] [B,2D2][B,2D2] | 
[V:3] F,F, F,2F,2 | 
[V:4] B,,B,, B,,2B,,2 | 
[V:1] [DB][DB][DB][DB][DB][DB] | 
[V:2] [B,D][B,D][B,D][B,D][B,D][B,D] | 
[V:3] F,F,F,F,F,F, | 
[V:4] B,,B,,B,,B,,B,,B,, | 
[V:1] d'6 | 
[V:2] B6 | 
[V:3] F6 | 
[V:4] B,6 | 
[V:1] [Dc][Dc][Dc][Dc][Dc][Dc] | 
[V:2] [CD][CD][CD][CD][CD][CD] | 
[V:3] ^F,F,F,F,F,F, | 
[V:4] A,,A,,A,,A,,A,,A,, | 
[V:1] d'6 | 
[V:2] c6 | 
[V:3] ^F6 | 
[V:4] A,6 | 
[V:1] z6 | 
[V:2] [GB][GB][GB][GB][GB][GB] | 
[V:3] z6 | 
[V:4] z6 | 
[V:1] [^c=e][ce][ce][ce][ce][ce] | 
[V:2] z6 | 
[V:3] z6 | 
[V:4] z6 | 
[V:1] z6 | 
[V:2] z6 | 
[V:3] [^C=E][CE][CE][CE][CE][CE] | 
[V:4] z6 | 
[V:1] z6 | 
[V:2] z6 | 
[V:3] z6 | 
[V:4] A,,A,,A,,A,,A,,A,, | 
[V:1] D2 z .A.d.f | 
[V:2] FFFFFF | 
[V:3] DDDDDD | 
[V:4] D,,2 z2 z2 | 
[V:1] f=e e>d^c3/A/ | 
[V:2] GGGGGG | 
[V:3] =EEEEEE | 
[V:4] z6 | 
[V:1] d2f2a2- | 
[V:2] AAAAAA | 
[V:3] FFFFFF | 
[V:4] z .A,.F,.D,.A,,.F,, | 
[V:1] ag .g>.f.=e3/.c/ | 
[V:2] BBBB=BB | 
[V:3] =EEEEEE | 
[V:4] G,,2G,2^G,2 | 
[V:1] d^c .c.d.=e.B | 
[V:2] =E2 z2 z .F | 
[V:3] A2 z2 z .D | 
[V:4] A,2 z2 z2 | 
[V:1] BA .A.^G.A.G | 
[V:2] =E2 z2 z2 | 
[V:3] ^D2 z2 z .D, | 
[V:4] z2 z2 z .B,, | 
[V:1] .A.B.A.B.A.B | 
[V:2] z6 | 
[V:3] ^C,2 z2 z2 | 
[V:4] A,,2 z2 z2 | 
[V:1] .A2A2=B2 | 
[V:2] F6 | 
[V:3] z6 | 
[V:4] D6 | 
[V:1] {/A2=B2} .c2.c2.c2 | 
[V:2] =E2>G2FB | 
[V:3] C2>=E2DE | 
[V:4] C2>B,2A,G, | 
[V:1] c2>^c2dB | 
[V:2] A4GF | 
[V:3] F4FD | 
[V:4] F,4F,G, | 
[V:1] .A2.A2.A2 | 
[V:2] .=E2.E2.E2 | 
[V:3] .^C2.C2.C2 | 
[V:4] A,2>G,2F,=E, | 
[V:1] A4f2- | 
[V:2] F6 | 
[V:3] D2 A,2=B,2 | 
[V:4] D,6 | 
[V:1] fd=egfb | 
[V:2] z2 .c2.c2 | 
[V:3] {/A,2=B,2} .C2.C2.C2 | 
[V:4] C,2>B,,2A,,G,, | 
[V:1] a=ef^cdB | 
[V:2] c3A2D | 
[V:3] C3A,2G, | 
[V:4] F,,4F,,G,, | 
[V:1] .A2.A2.A2 | 
[V:2] ^C2>C2D=E | 
[V:3] =E,2>A,2 A,^C | 
[V:4] A,,2>G,,2F,,=E,, | 
[V:1] .A.AA4- | 
[V:2] .F.=EF4- | 
[V:3] .D.^CD4- | 
[V:4] D,,2>.A,,2D,2- | 
[V:1] A2.A.A A2- | 
[V:2] F2.=E.F E2- | 
[V:3] D2.^C.D C2- | 
[V:4] D,2.A,,.D,, A,,2- | 
[V:1] A2.[A,A].[A,A] [A,2A2]- | 
[V:2] E2 .D.G F2- | 
[V:3] C2 .D.[^C=E] D2- | 
[V:4] A,,2 .D,,.A,, D,2- | 
[V:1] [A,2A2].[A,A].[A,A] [A,2A2]- | 
[V:2] F2.G.F =E2 | 
[V:3] D2 .[^C=E].DC2 | 
[V:4] D,2 .A,,.D,, A,,2 | 
[V:1] [A,2A2][G,4G4]- | 
[V:2] F2E4- | 
[V:3] D2B,4- | 
[V:4] D,,2E,,4- | 
[V:1] [G,2G2]=E2F2 | 
[V:2] E2^C2D2 | 
[V:3] B,2G,2F,2 | 
[V:4] E,,2A,,2D,,2 | 
[V:1] D>G[G,4G4]- | 
[V:2] D>G, G,2E2- | 
[V:3] D,>B,B,4- | 
[V:4] D,>E,E,4- | 
[V:1] [G,2G2]=E2F2 | 
[V:2] E2^C2D2 | 
[V:3] B,2G,2F,2 | 
[V:4] E,2A,,2D,2 | 
[V:1] DD D2D2 | 
[V:2] DD D2D2 | 
[V:3] D,D,D,2D,2 | 
[V:4] D,,D,, D,,2D,,2 | 
[V:1] DD D2D2 | 
[V:2] DD D2D2 | 
[V:3] D,D, D,2D,2 | 
[V:4] D,,D,, D,,2D,,2 | 
[V:1] DDDDDD | 
[V:2] DDDDDD | 
[V:3] D,D,D,D,D,D, | 
[V:4] D,,D,,D,,D,,D,,D,, | 
[V:1] D6 | 
[V:2] D6 | 
[V:3] D,6 | 
[V:4] D,,6 | 
[V:1] C6 | 
[V:2] C6 | 
[V:3] C,6 | 
[V:4] C,,6 | 
[V:1] _G4F2 | 
[V:2] _G4F2 | 
[V:3] _G,4F,2 | 
[V:4] _G,,4F,,2 | 
[V:1] B,6 | 
[V:2] B,6 | 
[V:3] B,6 | 
[V:4] .B,,.B,, .B,,2B,,2 | 
[V:1] z6 | 
[V:2] z6 | 
[V:3] z6 | 
[V:4] B,,B,, B,,2B,,2 | 
[V:1] z6 | 
[V:2] z6 | 
[V:3] z6 | 
[V:4] B,,B,,B,,B,,B,,B,, | 
[V:1] z6 | 
[V:2] z6 | 
[V:3] z6 | 
[V:4] B,,6 | 
[V:1] z6 | 
[V:2] .F.B.d.B.c.A | 
[V:3] z6 | 
[V:4] z6 | 
[V:1] z6 | 
[V:2] B2F4 | 
[V:3] z6 | 
[V:4] z6 | 
[V:1] z6 | 
[V:2] z6 | 
[V:3] .G.F.E.D.C.F | 
[V:4] z6 | 
[V:1] z6 | 
[V:2] z6 | 
[V:3] .D2B,4 | 
[V:4] z6 | 
[V:1] z6 | 
[V:2] .D.F.B.d.c.A | 
[V:3] z6 | 
[V:4] z6 | 
[V:1] z6 | 
[V:2] .B.d2< f2g | 
[V:3] z6 | 
[V:4] z6 | 
[V:1] z [DF][DF][DF] [D2F2] | 
[V:2] .f.d.B.c B2 | 
[V:3] z G,G,G,G,2 | 
[V:4] z6 | 
[V:1] [^C6=E6]- | 
[V:2] {/A2B2}A6- | 
[V:3] A,A,A,2A,2 | 
[V:4] z6 | 
[V:1] [C6E6]- | 
[V:2] A6- | 
[V:3] A,A,A,2A,2 | 
[V:4] z6 | 
[V:1] [C6E6]- | 
[V:2] A6- | 
[V:3] A,A,A,A,A,A, | 
[V:4] z6 | 
[V:1] [C6E6] | 
[V:2] A6 | 
[V:3] A,6 | 
[V:4] z6 | 
[V:1] .=e.a.^c'.a.=b._a | 
[V:2] z6 | 
[V:3] z6 | 
[V:4] z6 | 
[V:1] .a2=e4 | 
[V:2] z6 | 
[V:3] z6 | 
[V:4] z6 | 
[V:1] z6 | 
[V:2] .^f.=e.d.^c.B.e | 
[V:3] z6 | 
[V:4] z6 | 
[V:1] z6 | 
[V:2] ^c2A4 | 
[V:3] z6 | 
[V:4] z6 | 
[V:1] .=f'.=e'.d'.c'.=b.d' | 
[V:2] z6 | 
[V:3] z6 | 
[V:4] z6 | 
[V:1] .^g.=b.f.=e._b.a | 
[V:2] z4.B.A | 
[V:3] z6 | 
[V:4] z6 | 
[V:1] .g.f.=e.d.^c.e | 
[V:2] .=G.F.=E.D.^C.E | 
[V:3] z4^C=E | 
[V:4] z6 | 
[V:1] {/c} BA {/C} B,A, {/C} B,A, | 
[V:2] z6 | 
[V:3] {/^C} B,A, z2 z2 | 
[V:4] z2 {/C,} B,,A,,{/C,}B,,A,, | 
[V:1] DD D2D2 & DD D2D2 | 
[V:2] z6 | 
[V:3] z6 | 
[V:4] D,D,D, z z2 | 
[V:1] DD D2D2 & DD D2D2 | 
[V:2] eee z z2 | 
[V:3] ^FFF z z2 | 
[V:4] CCC z z2 | 
[V:1] DD D2D2 & DDD2D2 | 
[V:2] ddd z z2 | 
[V:3] GGG z z2 | 
[V:4] B,B,B, z z2 | 
[V:1] DDDDDD & DDDDDD | 
[V:2] g6 | 
[V:3] ^c6 | 
[V:4] [D,6B,6] | 
[V:1] [Dd][Dd] [D2d2][D2d2] | 
[V:2] _g2 aa z2 | 
[V:3] d2^FF z2 | 
[V:4] [D,2A,2] z2 D,D, | 
[V:1] [Dd][Dd] [D2d2][D2d2] | 
[V:2] aa z2 aa | 
[V:3] ^FF z2 FF | 
[V:4] z2 C,C, z2 | 
[V:1] [Dd][Dd] [D2d2][D2d2] | 
[V:2] z2 bb z2 | 
[V:3] z2 GG z2 | 
[V:4] B,,B,, z2 G,,G,, | 
[V:1] [Dd][Dd][Dd][Dd][Dd][Dd] | 
[V:2] [=e^c'][ec'][ec'][ec'][ec'][ec'] | 
[V:3] [GB][GB][GB][GB][GB][GB] | 
[V:4] [G,,D,][G,,D,][G,,D,][G,,D,][G,,D,][G,,D,] | 
[V:1] [D2d2] z2 z2 | 
[V:2] d'D DDDD | 
[V:3] D,D,D,D,D,D, | 
[V:4] D,,D,,D,,D,,D,,D,, | 
[V:1] z4[ef][ef] | 
[V:2] CC_GGFF | 
[V:3] C,C,_G,G,F,F, | 
[V:4] C,,C,,_G,,G,,F,,F,, | 
[V:1] .f.b.d'.b.c'.a | 
[V:2] .F.B.d.B.c.A | 
[V:3] [F,F][F,F] [F,2F2][F,2F2] | 
[V:4] [B,,D,][B,,D,] [B,,2D,2][B,,2E,2] | 
[V:1] .b2f4 | 
[V:2] B2F4 | 
[V:3] [F,F][F,F] [F,2F2][F,2F2] | 
[V:4] [B,,D,][B,,D,][B,,D,][B,,D,][B,,D,][B,,D,] | 
[V:1] .g.f.e.d.c.f | 
[V:2] .G.F.E.D.C.F | 
[V:3] [F,F][F,F][F,F][F,F][F,F][F,F] | 
[V:4] [B,,E,][B,,E,][B,,E,][B,,E,][B,,E,][B,,E,] | 
[V:1] .d2B4 | 
[V:2] .D2B,4 | 
[V:3] .[F,F].B,.D.F.E.C | 
[V:4] .[B,,D,].F, .B,.D.C.A, | 
[V:1] .d.f.b.d'.c'.a | 
[V:2] DFBdcA | 
[V:3] DB,F,D,F,F, | 
[V:4] B,F,D,B,,E,E, | 
[V:1] .b.d'2< f'2g' | 
[V:2] Bd2< f2g | 
[V:3] F, B,DFEC | 
[V:4] D,F,B,DCA, | 
[V:1] .f'.d'.b.c' b2 | 
[V:2] .f.d.B.c B2 | 
[V:3] DD,DD DD | 
[V:4] B,B,, B,B,B,B, | 
[V:1] {/a2b2}a4z2 | 
[V:2] {/A2B2}A4.a.b | 
[V:3] =EEEEEE | 
[V:4] ^CCCCCC | 
[V:1] z6 | 
[V:2] .a.f.d.=e d2 | 
[V:3] FFFFFF | 
[V:4] DDDDDD | 
[V:1] z4.c'.d' | 
[V:2] {/_c2^d2}=c4c=d | 
[V:3] GGGGGG | 
[V:4] =EEEEEE | 
[V:1] .c'.a.f.g f2 | 
[V:2] cAFG F2 | 
[V:3] AA,/B,/ CA,_D=B, | 
[V:4] FF,/G,/ A,F,=B,G, | 
[V:1] .=e.c z2 .=E.C | 
[V:2] .=E.C .A.G z2 | 
[V:3] =E2 z2 z2 | 
[V:4] C2 z2 z2 | 
[V:1] z6 | 
[V:2] .A,.G, z2 z2 | 
[V:3] z2 .=E,.C, z2 | 
[V:4] z4.A,,.G,, | 
[V:1] z6 | 
[V:2] z6 | 
[V:3] z6 | 
[V:4] C,,6 | 
[V:1] F>G _A2B2 | 
[V:2] z6 | 
[V:3] z6 | 
[V:4] z6 | 
[V:1] c4_d2 | 
[V:2] z4C2 | 
[V:3] z2_A,4 | 
[V:4] z2F,4- | 
[V:1] e._d.c.B ._A.G | 
[V:2] _D4=E2 | 
[V:3] B,4C2- | 
[V:4] F,4F,2- | 
[V:1] ._A.G.F z z2 | 
[V:2] F2 z ._d.c.B | 
[V:3] C2 z2 z2 | 
[V:4] F,2 z2 z2 | 
[V:1] f>g _a2b2 | 
[V:2] _AG F2f2 | 
[V:3] z4F2 | 
[V:4] z2 z _DCB, | 
[V:1] c'4_d'2 | 
[V:2] f2_A2A2 | 
[V:3] F4F2 | 
[V:4] _A,G,F,E,_D,C, | 
[V:1] .e'._d'.c'.b._a.g | 
[V:2] G2>B2_A[=Ec] | 
[V:3] F2 =E G,CB, | 
[V:4] B,,2C,4 | 
[V:1] f2 z2 _A2 | 
[V:2] F2 z2 _A,2 | 
[V:3] _A,2 z2 F,2 | 
[V:4] F,,2F,2 z2 | 
[V:1] G>F =E2G2 | 
[V:2] G,2B,2B,2 | 
[V:3] =E,2G,2E,2 | 
[V:4] C,,2.C,2.C,2 | 
[V:1] F4c2 | 
[V:2] _A,4C2 | 
[V:3] F,4_A,2 | 
[V:4] .F,2F,,2D,,2 | 
[V:1] B>_A G2B2 | 
[V:2] B,2_D2D2 | 
[V:3] G,2B,2G,2 | 
[V:4] E,,2.E,2.E,2 | 
[V:1] _A4e2 | 
[V:2] C4E2 | 
[V:3] _A,4C2 | 
[V:4] ._A,2_A,,2^F,,2 | 
[V:1] d>c =B2d2 | 
[V:2] D2F2=B2 | 
[V:3] =B,2D2F2 | 
[V:4] G,,2.G,2.G,2 | 
[V:1] c2c'2c'2 | 
[V:2] c>de2f2 | 
[V:3] E2 z2 z2 | 
[V:4] C,2C2D2 | 
[V:1] c'4c'2- | 
[V:2] g4_a2 | 
[V:3] z6 | 
[V:4] E4F2 | 
[V:1] c'.c'.c'.c'.c'.=b | 
[V:2] b._a.g.f.e.d | 
[V:3] z .C.c.C.G.F | 
[V:4] G.F.E._A,.G,.G,, | 
[V:1] .c'.b._a.g.f.=e | 
[V:2] .c.f.e._d.c.B | 
[V:3] .=E._d.c.B._A.G | 
[V:4] C, .C.C.C.C.C | 
[V:1] f>g _a2b2 | 
[V:2] c>B _Afff | 
[V:3] _A>G FFFF | 
[V:4] F2> _D2CB, | 
[V:1] c'4_d'2 | 
[V:2] f_AAAAA | 
[V:3] FFFFFF | 
[V:4] _A,G,F,E,_D,C, | 
[V:1] e'_d'c'b_ag | 
[V:2] GGG[=Ec][Ec][Ec] | 
[V:3] FF=EEGG | 
[V:4] B,,2C,4 | 
[V:1] fCCCCC | 
[V:2] [F2c2] z2 z2 | 
[V:3] _A2 z2 z2 | 
[V:4] F,,2 z2 _A,2 | 
[V:1] B,CG,Ccc | 
[V:2] z2 z2 =E2 | 
[V:3] z4B,2 | 
[V:4] G,>F,=E,2G,2 | 
[V:1] cccc EE | 
[V:2] F>G_A2 z2 | 
[V:3] _A,>G, F,2 z2 | 
[V:4] F,4C2 | 
[V:1] _DEB,E ee | 
[V:2] z2 z2 G2 | 
[V:3] z4_D2 | 
[V:4] B,>_A,G,2B,2 | 
[V:1] eeee GG | 
[V:2] _A>B c2 z2 | 
[V:3] C>B, _A,2 z2 | 
[V:4] _A,4[K:clef=tenor]E2 | 
[V:1] FGDG gg | 
[V:2] z2 z2 =B2 | 
[V:3] z4F2 | 
[V:4] D>C=B,2D2 | 
[V:1] gc' c'c'c'c' | 
[V:2] c>=Bc2d2 | 
[V:3] E>FG2_A2 | 
[V:4] C>DE2F2 | 
[V:1] c'c'c'c' c'c' | 
[V:2] =e4f2 | 
[V:3] B4c2 | 
[V:4] G4_A2 | 
[V:1] .c'.c'.c'.c'.c'.c' | 
[V:2] g.f.e.d.c.=B | 
[V:3] _d.c.B._A.G.F | 
[V:4] B._A.G.F.E.D | 
[V:1] .c'.c.c.c.d.=e | 
[V:2] .c.B._A.G.F.=E | 
[V:3] .G.F.E._D.C.B, | 
[V:4] [K:clef=bass].E._D.C.B,._A,.G, | 
[V:1] f>g _a2b2 | 
[V:2] F>=E_A2B2 | 
[V:3] .C.B,._A,.F.E._D | 
[V:4] ._A,.G,.F,._D.C.B, | 
[V:1] c'4_d'2 | 
[V:2] c4_d2 | 
[V:3] .C.B,._A,._G,.F,.E, | 
[V:4] ._A,.G,.F,.E,._D,.C, | 
[V:1] e'._d'.c'.b._a.g | 
[V:2] .e._d.c.B._A.G | 
[V:3] ._D,.F,.=E,.G,.C.C | 
[V:4] .B,,.G,,.C,.C,,.D,,.=E,, | 
[V:1] ._a.g.f z z2 | 
[V:2] _A2z._d.c.B | 
[V:3] F,2 z2 z C | 
[V:4] F,,2 z2 z2 | 
[V:1] z6 | 
[V:2] ._A.G.F z z2 | 
[V:3] F2 z ._D.C.B, | 
[V:4] z2 z2 z C, | 
[V:1] z2 z2 z c | 
[V:2] F2 z2 z2 | 
[V:3] ._A,.G,.F, z z2 | 
[V:4] F,2 z ._D,.C,.B,, | 
[V:1] f_A A2A2 | 
[V:2] _A,F F2F2 | 
[V:3] CCC2_D2 | 
[V:4] ._A,,.G,,.F,,2_D,2 | 
[V:1] GG G2G2 | 
[V:2] FF F2=E2 | 
[V:3] _DDB,2B,2 | 
[V:4] B,,B,,G,,2C,2 | 
[V:1] _A_aaabb | 
[V:2] Fff_d dd | 
[V:3] CC_DFFF | 
[V:4] F,F,_D,D,B,,B,, | 
[V:1] bbbb_aa | 
[V:2] _dddd cc | 
[V:3] EE_GGGG | 
[V:4] _G,,G,,E,,E,,_A,,A,, | 
[V:1] _a6- | 
[V:2] _d2> ._A2.d.f | 
[V:3] FFFFFF | 
[V:4] _D,,_DDDDD | 
[V:1] a2> ._a2.e'._g' | 
[V:2] .e._d.c.B.c._A | 
[V:3] _GGGGGG | 
[V:4] EEEEEE | 
[V:1] ._a._d' .f'_a'2a'- | 
[V:2] ._d.f._a._A .F._D | 
[V:3] _A ._A,._D.F z2 | 
[V:4] _D2 z ._A,,._D,.F, | 
[V:1] a'_g'2g'2g'- | 
[V:2] .C.E._A,.e .E_A- | 
[V:3] z ._A,.E._G z .C | 
[V:4] .E,._D,.C,.B,,.C,._A,, | 
[V:1] g'f'2f'2f'- | 
[V:2] A_A2A2A | 
[V:3] _DD2 ._D,.F,._A, | 
[V:4] _D,,F,,_A,, z z2 | 
[V:1] f'f'2 .f._a._d' | 
[V:2] _DF_A_d z2 | 
[V:3] z6 | 
[V:4] z6 | 
[V:1] f'f'2f'2f'- | 
[V:2] [_Ac][A2c2][A2c2][Ac] | 
[V:3] z2 z C,F,_A, | 
[V:4] C,,F,,_A,, z z2 | 
[V:1] f'f'2 f_ac' | 
[V:2] CF_Ac z2 | 
[V:3] z6 | 
[V:4] z6 | 
[V:1] f'f'2f'2f'- | 
[V:2] [_A=d][A2d2][A2d2][Ad] | 
[V:3] z2 z =B,DF | 
[V:4] =B,,D,F, z z2 | 
[V:1] f'f'2 .f.=b.d' | 
[V:2] =Bdf z z2 | 
[V:3] z6 | 
[V:4] z6 | 
[V:1] f'f'2f'2f'- | 
[V:2] [df][d2f2][d2f2][df] | 
[V:3] z2 z _A,DF | 
[V:4] _A,,D,F, z z2 | 
[V:1] f'f'2f=bd' | 
[V:2] =Bdf z z2 | 
[V:3] z6 | 
[V:4] z6 | 
[V:1] f'G,=B,DF=B | 
[V:2] [D=B][D2B2][D2B2][DB] | 
[V:3] G,G,2G,2G, | 
[V:4] G,,=B,,D,G,=B,D- | 
[V:1] df=bd'f'f' | 
[V:2] [D=B][DB][DB][DB][DB][DB] | 
[V:3] G,G,G,G,G,G, | 
[V:4] D=B,G,D,=B,,G,, | 
[V:1] [^f^f'][ff'][f4f'4] | 
[V:2] ^FFF4 | 
[V:3] ^F,F,F,4 | 
[V:4] ^F,,F,,F,,4 | 
[V:1] z6 | 
[V:2] z6 | 
[V:3] z6 | 
[V:4] z6 | 
[V:1] e2^c2=B2 | 
[V:2] ^F2=E2_E2 | 
[V:3] =B,2^A,2B,2 | 
[V:4] =B,2^F,2^G,2 | 
[V:1] =e>^c=B2^A2 | 
[V:2] ^G2^F2F2 | 
[V:3] ^G,2^D2^C2 | 
[V:4] =E,2^F,2E,2 | 
[V:1] ^f2=e2_e2 | 
[V:2] ^F2^c2=B2 | 
[V:3] =B,2^A,2B,2 | 
[V:4] E,2^F,2^G,2 | 
[V:1] ^g>=e^d2^c2 | 
[V:2] =e>^c=B2^A2 | 
[V:3] ^G,2^F,2^F2 | 
[V:4] =E,2^F,2E,2 | 
[V:1] ^f>^d^c2 z2 | 
[V:2] =B2^G2 z2 | 
[V:3] ^F2=E2 z2 | 
[V:4] ^D,>=B,,=E,2 z2 | 
[V:1] z2 ^A2 z2 | 
[V:2] z2 =E2 z2 | 
[V:3] z2 ^C2 z2 | 
[V:4] z2 ^F,2 z2 | 
[V:1] .^d.dd2d2 | 
[V:2] z6 | 
[V:3] .=B,.^F,.B,.F,.B,.F, | 
[V:4] =B,,6 | 
[V:1] =e6 | 
[V:2] ^FFF2F2 | 
[V:3] .^C.^F,.C.F,.C.F, | 
[V:4] ^A,,6 | 
[V:1] ^ddd2d2 | 
[V:2] z6 | 
[V:3] =B,^F,B,F,B,F, | 
[V:4] =B,,6 | 
[V:1] ^c6 | 
[V:2] ^FFF2F2 | 
[V:3] B,^F,B,F,B,F, | 
[V:4] ^F,,6 | 
[V:1] =BBB2B2 | 
[V:2] z2 EEE2 | 
[V:3] ^G,E,G,E,G,E, | 
[V:4] ^G,,6 | 
[V:1] ^AAAAAA | 
[V:2] EEEEEE | 
[V:3] ^F,E,F,E,F,E, | 
[V:4] ^D,,6 | 
[V:1] B6- | 
[V:2] D6 | 
[V:3] F,6- | 
[V:4] B,,6- | 
[V:1] B6 | 
[V:2] _D6 | 
[V:3] F,6 | 
[V:4] B,,6 | 
[V:1] bbb2b2 | 
[V:2] .B.BB2 B2 | 
[V:3] ._G,._D.B,.D.B,.D | 
[V:4] ._G,,.B,._G,.B,.G,.B, | 
[V:1] _c'6 | 
[V:2] _c6 | 
[V:3] ._A,._D.A,.D.A,.D | 
[V:4] .F,._A,.F,.A,.F,.A, | 
[V:1] bbb2b2 | 
[V:2] BBB2B2 | 
[V:3] B,B,_G,B,G,B, | 
[V:4] _G,G,E,G,E,G, | 
[V:1] _a6 | 
[V:2] _A6 | 
[V:3] F,B,F,B,F,B, | 
[V:4] D,F,D,F,D,F, | 
[V:1] _ggg2g2 | 
[V:2] _GGG2G2 | 
[V:3] _G,G,E,G,E,G, | 
[V:4] E,E,B,,E,B,,E, | 
[V:1] ffffff | 
[V:2] FFFF FF | 
[V:3] _D,F,D,F,D,F, | 
[V:4] B,,^C,B,,C,B,,C, | 
[V:1] =e6- | 
[V:2] =E6- | 
[V:3] =G,6- | 
[V:4] C,6- | 
[V:1] =e6- | 
[V:2] =E6 | 
[V:3] G,6 | 
[V:4] C,6 | 
[V:1] =e=egc'=e'c | 
[V:2] [G,6=E6]- | 
[V:3] [C,6G,6]- | 
[V:4] [C,,C,][C,,C,][C,,2C,2][C,,2C,2] | 
[V:1] =egc'Gce | 
[V:2] [G,6=E6]- | 
[V:3] [C,6G,6]- | 
[V:4] [C,,C,][C,,C,][C,,2C,2][C,,2C,2] | 
[V:1] =EGcC_EG | 
[V:2] [G,4=E4][G,2E2] | 
[V:3] [C,4G,4][C,2G,2] | 
[V:4] [C,,C,][C,,C,][C,,C,][C,,C,][C,,C,][C,,C,] | 
[V:1] cegc'e'c' | 
[V:2] G4A2 | 
[V:3] E4^F2 | 
[V:4] [C,,6C,6] | 
[V:1] =b6- | 
[V:2] D2 z2 z2 | 
[V:3] [G,G][G,G][G,2G2][G,2G2] | 
[V:4] G,,G,=B,DGD, | 
[V:1] =b6- | 
[V:2] [G6=B6]- | 
[V:3] [G,G][G,G][G,2G2][G,2G2] | 
[V:4] G,=B,D=B,,D,G, | 
[V:1] b4b2 | 
[V:2] [G4B4][G2B2] | 
[V:3] [G,G][G,G][G,G][G,G][G,G][G,G] | 
[V:4] G,,=B,,D,G,D,_B,, | 
[V:1] D4=E2 | 
[V:2] B4^c2 | 
[V:3] [G,6G6] | 
[V:4] G,,B,,G,,F,,=E,,A,, | 
[V:1] F6- | 
[V:2] [Dd][Dd][D2d2][D2d2] | 
[V:3] z FAdfD | 
[V:4] D,,6- | 
[V:1] F6- | 
[V:2] [Dd][Dd][D2d2][D2d2] | 
[V:3] FAA,DFF, | 
[V:4] D,,6- | 
[V:1] F4F2 | 
[V:2] [Dd][Dd][Dd][Dd][Dd][Dd] | 
[V:3] ^G,=B,DF^G=B | 
[V:4] D,,4D,,2 | 
[V:1] f4^g2 | 
[V:2] [D6d6] | 
[V:3] ^GFD=B, ^G,F, | 
[V:4] D,,4D,2 | 
[V:1] [Aa][Aa] [A2a2][A2a2] | 
[V:2] cAce ^f^F | 
[V:3] ^F,2 z2 z F, | 
[V:4] ^D,2 z2 z2 | 
[V:1] [Aa][Aa] [A2a2][A2a2] | 
[V:2] AceE^FA | 
[V:3] A,C^D^D,^F,A, | 
[V:4] z2 z ^D,^F,A, | 
[V:1] [Aa][Aa][Aa][Aa][Aa][Aa] | 
[V:2] c[A^f] [Af][Af][Af][Af] | 
[V:3] CCCCCC | 
[V:4] CA,^F,E, C,A,, | 
[V:1] [Aa][Ac'][Ac'][Ac'][Ac'][Ac'] | 
[V:2] [A^f][Aa] [Aa][Aa] [Aa][Aa] | 
[V:3] C[C^F] [CF][CF][CF][CF] | 
[V:4] ^F,,E,, E,,E,,E,,E,, | 
[V:1] [Ac'][Ac'][Ac'][Ac'][Ac'][Ac'] | 
[V:2] [Aa][Aa][Aa][Aa] [Aa][Aa] | 
[V:3] [C^F][CF][CF][CF][CF][CF] | 
[V:4] E,,E,,E,,E,,E,,E,, | 
[V:1] [Ac'][Ac'][Ac'][Ac'][Ac'][Ac'] | 
[V:2] [Aa][Aa][Aa][Aa] [Aa][Aa] | 
[V:3] [C^F][CF][CF][CF][CF][CF] | 
[V:4] E,,E,,E,,E,,E,,E,, | 
[V:1] c'c'c'c'c'c' | 
[V:2] [Aa]a aa aa | 
[V:3] [C2=E2] z2 z2 | 
[V:4] =E,,2 z2 z2 | 
[V:1] c'c'c'c'c'c' | 
[V:2] aaaa aa | 
[V:3] =eeeeee | 
[V:4] z6 | 
[V:1] .c'.=e'.a'.e'.f'.d' | 
[V:2] .=e.e.e2.f2 | 
[V:3] .c.c.c2.d2 | 
[V:4] [K:clef=tenor].A.A.A2.A2 | 
[V:1] .=e'2c'4 | 
[V:2] =eee2e2 | 
[V:3] ccc2c2 | 
[V:4] AAA2A2 | 
[V:1] .f'.=e'.d'.c'.=b.e' | 
[V:2] fff2=e2 | 
[V:3] ddd2d2 | 
[V:4] AAA2A2 | 
[V:1] .c'2a4 | 
[V:2] .=e.e.e.c.d.e | 
[V:3] .c.c.c.A.=B.c | 
[V:4] AAA2 z2 | 
[V:1] z6 | 
[V:2] .f.=e.d.c.=B.e | 
[V:3] .d.c.=B.A.^G.=E | 
[V:4] z6 | 
[V:1] .B.A.G.F.=E.G | 
[V:2] .G.F.=E.D.^C.E | 
[V:3] z6 | 
[V:4] z6 | 
[V:1] z6 | 
[V:2] z6 | 
[V:3] z2 .B,.A,.G,.^C | 
[V:4] [K:clef=bass].B,.A,.G,.F,.=E,.B, | 
[V:1] .a.g.^f.c' .=b2 | 
[V:2] z4.=B.c | 
[V:3] .C.B,.A,.E.D.C | 
[V:4] z4.F,.E, | 
[V:1] z6 | 
[V:2] .d.=B z2 .c.d | 
[V:3] .=B,.F.E.D z2 | 
[V:4] .D,._A,.G,.F, z2 | 
[V:1] .g'.f'.=e'.g' z2 | 
[V:2] .e.d.c.e z2 | 
[V:3] z4.G.F | 
[V:4] z4.E.D | 
[V:1] z2 .e'.d'.c'.e' | 
[V:2] z2 .c.B.A.c | 
[V:3] .E.G z2 .E.D | 
[V:4] .C.E z2 .C.B, | 
[V:1] z2 .c'.b.a.c' | 
[V:2] z2 .A.G .^F.=E | 
[V:3] .C.E z2 z2 | 
[V:4] .A,.C z2 z2 | 
[V:1] .^f.a .d'2 .e'.d' | 
[V:2] .D.^F .B2 .c.B | 
[V:3] dcBdGB | 
[V:4] B,A,G,B,E,G, | 
[V:1] .c'.e' z2 .f'.e' | 
[V:2] .Ac z2 dc | 
[V:3] ed ceAc | 
[V:4] CB, A,CF,A, | 
[V:1] .d'.f'.g'.f'.e'.g' | 
[V:2] Bded ce | 
[V:3] dcBded | 
[V:4] B,A,G,B,CB, | 
[V:1] _a'g'f'a'b'a' | 
[V:2] fedf gf | 
[V:3] cefedf | 
[V:4] _A,CDCB,D | 
[V:1] g'b'c''b'_a'g' | 
[V:2] eg_ag fe | 
[V:3] gG FG_AB | 
[V:4] EE[K:clef=tenor] DEFG | 
[V:1] f'g'd'e'=bc' | 
[V:2] de=bc'ga | 
[V:3] cB_AGFE | 
[V:4] _AGFEDC | 
[V:1] d'e'f'=Bcd | 
[V:2] =bc'd'GA=B | 
[V:3] DC=B,_AGF | 
[V:4] [K:clef=bass]=B,A,G,FED | 
[V:1] efggab | 
[V:2] cde=e fg | 
[V:3] EDCDCB, | 
[V:4] CB,A,B,A,G, | 
[V:1] c'c'd'e'ab | 
[V:2] aabc'fg | 
[V:3] A,G,F,E,CB, | 
[V:4] F,E,D,C,A,G, | 
[V:1] c'd'gabc' | 
[V:2] ab=ef ga | 
[V:3] A,G,_DCB,A, | 
[V:4] F,=E,B,A,G,F, | 
[V:1] c'd'e'f'g'f' | 
[V:2] abc'd' e'd' | 
[V:3] G,F,E,D,C,D, | 
[V:4] E,D,C,B,,A,,B,, | 
[V:1] e'd'c'c'c'e' | 
[V:2] c'bbbac' | 
[V:3] E,F,G,G,F,[A,A] | 
[V:4] C,,D,,E,,=E,,F,,F,, | 
[V:1] [ee'][ee'][e2e'2] z2 | 
[V:2] [ec'][ec'][e2c'2] z2 | 
[V:3] [A,A][A,A][A,2A2] z2 | 
[V:4] _G,,G,,G,,2 z2 | 
[V:1] z6 | 
[V:2] z6 | 
[V:3] z6 | 
[V:4] z6 | 
[V:1] _d'd'd'2d'2 | 
[V:2] _G6 | 
[V:3] B,6 | 
[V:4] z6 | 
[V:1] _d'd'd'2d'2 | 
[V:2] B6 | 
[V:3] _D6 | 
[V:4] z6 | 
[V:1] _d'd'd'd'd'd' | 
[V:2] _A2_c2F2 | 
[V:3] _C2E2_A,2 | 
[V:4] z6 | 
[V:1] _d'2> z2 z2 | 
[V:2] ._G2>._D2.G.B | 
[V:3] B,2> z2 z2 | 
[V:4] ._D.B,._G,._D,.B,,._G,, | 
[V:1] z6 | 
[V:2] ._A._G.F.E.F._D | 
[V:3] z6 | 
[V:4] F,,2!accent!_C,4- | 
[V:1] z6 | 
[V:2] _GB2< !accent!_d2 z | 
[V:3] z2 z ._D,._G,.B, | 
[V:4] C,2B,,._D,.B,,._G,, | 
[V:1] z6 | 
[V:2] z6 | 
[V:3] ._A,.F,._G,.E,.A,.C, | 
[V:4] .F,,._A,,.E,,._G,,.A,,.A,, | 
[V:1] z6 | 
[V:2] _AAA2 A2 | 
[V:3] _D,6 | 
[V:4] F,,6 | 
[V:1] z6 | 
[V:2] _AAA2 A2 | 
[V:3] F,6 | 
[V:4] _A,,6 | 
[V:1] z6 | 
[V:2] _AAAA AA | 
[V:3] E,2_G,2C,2 | 
[V:4] _G,,2B,,2E,,2 | 
[V:1] ._a.f._d._A.F._D | 
[V:2] _A2> z2 z2 | 
[V:3] _D,2> ._A,2._D.F | 
[V:4] F,,6 | 
[V:1] C2_G4- | 
[V:2] z6 | 
[V:3] .E._D.C.B,.C._A, | 
[V:4] z6 | 
[V:1] G2F ._a._d'.f' | 
[V:2] z2 z .f._a.a | 
[V:3] ._D.F._A z z2 | 
[V:4] z2 z ._A,._F,._D, | 
[V:1] .e'.c'._d'.b.e'.g | 
[V:2] ._a._A .f._d.B.G | 
[V:3] z2 z .F.GE, | 
[V:4] .C,.E,.B,,._D,.E,._D | 
[V:1] _a6 | 
[V:2] _A6 | 
[V:3] _A,A,A,2A,2 | 
[V:4] C6 | 
[V:1] c'6 | 
[V:2] c6 | 
[V:3] _A,A,A,2A,2 | 
[V:4] E6 | 
[V:1] b2_d'2g2 | 
[V:2] B2_d2G2 | 
[V:3] _A,A,A,A,A,A, | 
[V:4] _D2F2B,2 | 
[V:1] _a4_g2 | 
[V:2] _A4_G2 | 
[V:3] _A,2[C2E2][C2E2] | 
[V:4] C2_A,2A,2 | 
[V:1] f6- | 
[V:2] F6- | 
[V:3] [C6E6]- | 
[V:4] =A,6- | 
[V:1] f6 | 
[V:2] F6 | 
[V:3] [C6E6] | 
[V:4] A,6 | 
[V:1] f6- | 
[V:2] d2c2B2 | 
[V:3] F2E2D2 | 
[V:4] B,2F,2G,2 | 
[V:1] f6- | 
[V:2] e>cB2A2 | 
[V:3] G>ED2C2 | 
[V:4] E,2F,2E,2 | 
[V:1] f6- | 
[V:2] f2e2d2 | 
[V:3] B,2A,2B,2 | 
[V:4] D,2C,2B,,2 | 
[V:1] f6- | 
[V:2] g>ed2c2 | 
[V:3] E>CB,2A,2 | 
[V:4] E,,2F,,2E,,2 | 
[V:1] f2g4- | 
[V:2] f>d c2 z2 | 
[V:3] D>B, [A,2E2] z2 | 
[V:4] D,,2E,,2 z2 | 
[V:1] g2a4 | 
[V:2] z2 [E2A2] z2 | 
[V:3] z2 [F,2C2] z2 | 
[V:4] z2 F,,2 z2 | 
[V:1] {/g2a2} b[DB] [D2B2][D2B2] | 
[V:2] [DB][B,D][B,2D2][B,2D2] | 
[V:3] F,F,F,2F,2 | 
[V:4] B,,B,,B,,2B,,2 | 
[V:1] [DB][DB][D2B2][D2B2] | 
[V:2] [B,D][B,D][B,2D2][B,2D2] | 
[V:3] F,F,F,2F,2 | 
[V:4] B,,B,,B,,2B,,2 | 
[V:1] [DB][DB][DB][DB][DB][DB] | 
[V:2] [B,D][B,D][B,D][B,D][B,D][B,D] | 
[V:3] F,F,F,F,F,F, | 
[V:4] B,,B,,B,,B,,B,,B,, | 
[V:1] d'6 | 
[V:2] d6 | 
[V:3] F6 | 
[V:4] B,6 | 
[V:1] [Dc][Dc][Dc][Dc][Dc][Dc] | 
[V:2] [CD][CD][CD][CD][CD][CD] | 
[V:3] ^F,F,F,F,F,F, | 
[V:4] A,,A,,A,,A,,A,,A,, | 
[V:1] d'6 | 
[V:2] c6 | 
[V:3] ^F6 | 
[V:4] A,6 | 
[V:1] z6 | 
[V:2] z6 | 
[V:3] [GB][GB][GB][GB][GB][GB] | 
[V:4] z6 | 
[V:1] e'e'e'e'e'e' | 
[V:2] c'c'c'c'c'c' | 
[V:3] z6 | 
[V:4] z6 | 
[V:1] [^FA][FA][FA][FA][FA][FA] | 
[V:2] z6 | 
[V:3] z6 | 
[V:4] z6 | 
[V:1] z6 | 
[V:2] z6 | 
[V:3] z6 | 
[V:4] D,D,D,D,D,D, | 
[V:1] G,2 z .d.g.b | 
[V:2] BBBBBB | 
[V:3] GGGGGG | 
[V:4] G,,2 z2 z2 | 
[V:1] ba .a>.g.^f3/.d/ | 
[V:2] cccccc | 
[V:3] AAAAAA | 
[V:4] z6 | 
[V:1] g2b2d'2- | 
[V:2] dddddd | 
[V:3] BBBBBB | 
[V:4] .D.B,.G,.D, .B,,.G,, | 
[V:1] d'c' .c'>.b.a3/.g/ | 
[V:2] cccc^cc | 
[V:3] GGGGGG | 
[V:4] E,2 z2 E,2 | 
[V:1] g^f .f.g.a.e | 
[V:2] d2 z2 z B | 
[V:3] A2 z2 z G | 
[V:4] D,2 z2 z2 | 
[V:1] ed .d.^c.d.c | 
[V:2] A2 z2 z2 | 
[V:3] ^F2 z2 z G, | 
[V:4] z2 z2 z E, | 
[V:1] .d.e.d.e.d.e | 
[V:2] z6 | 
[V:3] ^F,2 z2 z2 | 
[V:4] D,2 z2 z2 | 
[V:1] d2d2{/f}=e2 | 
[V:2] B6 | 
[V:3] z6 | 
[V:4] G6 | 
[V:1] .f2.f2.f2 | 
[V:2] A2>c2Be | 
[V:3] =F2>A2GA | 
[V:4] F2>E2DC | 
[V:1] f2>^f2ge | 
[V:2] d4dc | 
[V:3] B4BG | 
[V:4] B,4B,C | 
[V:1] .d2.d2.d2 | 
[V:2] .A2.A2.A2 | 
[V:3] .^F2.F2.F2 | 
[V:4] D2>C2B,A, | 
[V:1] d4b2- | 
[V:2] B4B2- | 
[V:3] G2D2=E2 | 
[V:4] G,6 | 
[V:1] bgac'be' | 
[V:2] BGAcBe | 
[V:3] .=F2.F2.F2 | 
[V:4] F,2>E,2D,C, | 
[V:1] d'ab^fge | 
[V:2] dAB^FGE | 
[V:3] F3 D2G, | 
[V:4] B,,4B,,C, | 
[V:1] .d2.d2.d2 | 
[V:2] D2>^F2Gc | 
[V:3] ^F,2>A,2B,^F | 
[V:4] D,2>C,2B,,A,, | 
[V:1] .d.dd4- | 
[V:2] .[DB].[DA][D4B4]- | 
[V:3] .G.^FG4- | 
[V:4] G,,2>.D,2.G,2- | 
[V:1] d2.d.dd2- | 
[V:2] [D2B2].[DA].[DB][D2A2]- | 
[V:3] G2.^F.GF2- | 
[V:4] G,2.D,.G,D,2- | 
[V:1] d2ddd2- | 
[V:2] [D2A2][DB][DA][D2B2]- | 
[V:3] F2G^FG2- | 
[V:4] D,2G,,D,G,2- | 
[V:1] d2ddd2- | 
[V:2] [D2B2][DA][DB][D2A2] | 
[V:3] G2^FGF2 | 
[V:4] G,2D,G,D,2 | 
[V:1] d2c4- | 
[V:2] B2E4- | 
[V:3] G2C4- | 
[V:4] G,,2_A,,4- | 
[V:1] c2A2B2 | 
[V:2] E2^F2G2 | 
[V:3] C2C2B,2 | 
[V:4] A,,2D,,2G,,2 | 
[V:1] G>cc4- | 
[V:2] G>CC4- | 
[V:3] B,>E,E,4- | 
[V:4] G,,>_A,,A,,4- | 
[V:1] c2A2B2 | 
[V:2] C2[C2D2][B,2D2] | 
[V:3] E,2^F,2G,2 | 
[V:4] A,,2D,,2G,,2 | 
[V:1] GGG2G2 | 
[V:2] G,G,G,2G,2 | 
[V:3] G,G,G,2G,2 | 
[V:4] G,,G,,G,,2G,,2 | 
[V:1] GGGGGG | 
[V:2] G,G,G,G,G,G, | 
[V:3] G,G,G,G,G,G, | 
[V:4] G,,G,,G,,G,,G,,G,, | 
[V:1] G6 | 
[V:2] G,6 | 
[V:3] G,6 | 
[V:4] G,,6 | 
[V:1] A6 | 
[V:2] A,6 | 
[V:3] A,6 | 
[V:4] A,,6 | 
[V:1] B6 | 
[V:2] B,6 | 
[V:3] B,6 | 
[V:4] B,,6 | 
[V:1] _D4C2 | 
[V:2] _D4C2 | 
[V:3] _D,4C,2 | 
[V:4] _D,,4C,,2 | 
[V:1] F6 | 
[V:2] z6 | 
[V:3] F,6 | 
[V:4] F,,F,,F,,2F,,2 | 
[V:1] =D6 | 
[V:2] z6 | 
[V:3] D,6 | 
[V:4] F,,F,,F,,2F,,2 | 
[V:1] C2D2=E2 | 
[V:2] c6 | 
[V:3] C,6- | 
[V:4] F,,F,,F,,F,,F,,F,, | 
[V:1] F6 | 
[V:2] [C4A4][B,2G2] | 
[V:3] C,2D,2=E,2 | 
[V:4] F,,6 | 
[V:1] .c.f.a.f.g.=e | 
[V:2] [A,4F4]z2 | 
[V:3] F,4z2 | 
[V:4] z6 | 
[V:1] .f2c4 | 
[V:2] z6 | 
[V:3] z6 | 
[V:4] z6 | 
[V:1] z6 | 
[V:2] .d.c.B.A.G.c | 
[V:3] z6 | 
[V:4] z6 | 
[V:1] z6 | 
[V:2] .A2F4 | 
[V:3] z6 | 
[V:4] z6 | 
[V:1] .A.c.f.a.g.=e | 
[V:2] A2F4 | 
[V:3] z6 | 
[V:4] z6 | 
[V:1] .f.a2<c'2d' | 
[V:2] z6 | 
[V:3] z6 | 
[V:4] z6 | 
[V:1] c'afg f2 | 
[V:2] z [Ac][Ac][Ac][A2c2] | 
[V:3] z6 | 
[V:4] z DDD D2 | 
[V:1] {/e2f2} =e2 z2 z2 | 
[V:2] [^G=B]=E E2E2 | 
[V:3] =e6 | 
[V:4] =E6 | 
[V:1] z6 | 
[V:2] =EE E2E2 | 
[V:3] c6 | 
[V:4] C6 | 
[V:1] =B6- | 
[V:2] =EEEEEE | 
[V:3] =B2^c2^d2 | 
[V:4] =B,6- | 
[V:1] B2^G2A2 | 
[V:2] =E6 | 
[V:3] =e6 | 
[V:4] B,2^G,2A,2 | 
[V:1] =E6 | 
[V:2] =E6 | 
[V:3] .=B,.=E.^G.E.^F.^D | 
[V:4] =E,6 | 
[V:1] z6 | 
[V:2] z6 | 
[V:3] .=E2.=B,4 | 
[V:4] z6 | 
[V:1] z6 | 
[V:2] z6 | 
[V:3] z6 | 
[V:4] .^C.=B,.A,.^G,.^F,.B, | 
[V:1] z6 | 
[V:2] z6 | 
[V:3] z6 | 
[V:4] .^G,2.=E,4 | 
[V:1] z6 | 
[V:2] z6 | 
[V:3] .c.=B.A.G.^F.A | 
[V:4] z6 | 
[V:1] z4.=f'.=e' | 
[V:2] z4.f.=e | 
[V:3] ^D^FC=B, z2 | 
[V:4] z6 | 
[V:1] .d'.c'.=b.a.^g.b | 
[V:2] .d.c.=B.A.^G.B | 
[V:3] z4.^G,.=B, | 
[V:4] z6 | 
[V:1] {/=g} f=e {/G} F=E{/G}FE | 
[V:2] {/=G} F=E{/G}FE{/G}FE | 
[V:3] {/=G,} F,=E,{/G,}F,E,{/G,}F,E, | 
[V:4] z2 {/G,,} F,,=E,, {/G,,} F,,E,, | 
[V:1] [A,A][A,A] [A,2A2][A,2A2] | 
[V:2] [A,2A2] [^c=e][ce] z2 | 
[V:3] [^C=E][CE] z2 [CE][CE] | 
[V:4] A,,A,, z2 A,,A,, | 
[V:1] [A,A][A,A] [A,2A2][A,2A2] | 
[V:2] [^c=e][ce] z [ce][ce] z | 
[V:3] z2 [^C=E][CE] z2 | 
[V:4] z2 G,,G,, z2 | 
[V:1] [A,A][A,A] [A,2A2][A,2A2] | 
[V:2] z2 [df][df] z2 | 
[V:3] [DF][DF] z2 [DF][DF] | 
[V:4] F,,F,, z2 F,,F,, | 
[V:1] [A,^G][A,G][A,G][A,G][A,G][A,G] | 
[V:2] [df][df][df][df][df][df] | 
[V:3] =B,B,B,B,B,B, | 
[V:4] [D,,A,,][D,,A,,][D,,A,,][D,,A,,][D,,A,,][D,,A,,] | 
[V:1] [A,A][Aa] [A2a2][A2a2] | 
[V:2] [^c=e][ce] z2 [ce][ce] | 
[V:3] ^C2[C=E][CE] z2 | 
[V:4] A,,2 A,,A,, z2 | 
[V:1] [Aa][Aa] [A2a2][A2a2] | 
[V:2] z2 [^c=e][ce] z2 | 
[V:3] [^C=E][CE] z2 [CE][CE] | 
[V:4] G,,G,, z2 G,,G,, | 
[V:1] [Aa][Aa] [A2a2][A2a2] | 
[V:2] [df][df] z2 [df][df] | 
[V:3] z2 [DF][DF] z2 | 
[V:4] z2 F,,F,, z2 | 
[V:1] [A=b][Ab][Ab][Ab][Ab][Ab] | 
[V:2] [fd'][fd'][fd'][fd'][fd'][fd'] | 
[V:3] ^GGGGGG | 
[V:4] [D,,A,,][D,,A,,][D,,A,,][D,,A,,][D,,A,,][D,,A,,] | 
[V:1] [A2a2] z2 z2 | 
[V:2] [=e^c']AAAAA | 
[V:3] AA, A,A,A,A, | 
[V:4] A,,A,,A,,A,,A,,A,, | 
[V:1] z4[e=f][ef] | 
[V:2] =cccc FF | 
[V:3] =CCCC F,F, | 
[V:4] C,C,C,C, F,,F,, | 
[V:1] .f.b.d'.b.=c'.a | 
[V:2] .F.B.d.B.=c.A | 
[V:3] .F,.B,.D.B,.=C.A, | 
[V:4] [B,,D,][B,,D,] [B,,2D,2][B,,2E,2] | 
[V:1] .b2f4 | 
[V:2] .B2F4 | 
[V:3] .B,2F,4 | 
[V:4] [B,,D,][B,,D,] [B,,2D,2][B,,2D,2] | 
[V:1] gfedcf | 
[V:2] GFEDCF | 
[V:3] G,F,E,D,C,A, | 
[V:4] [B,,E,][B,,F,][B,,G,][B,,F,][B,,E,][B,,E,] | 
[V:1] .d2B4 | 
[V:2] [B,2D2]B,4 | 
[V:3] D,F,B,DFE | 
[V:4] B,,D,F,B,DC | 
[V:1] .d.f.b.d'.c'.a | 
[V:2] .D.F.B.d.c.A | 
[V:3] DB,F,F,F,E, | 
[V:4] B,F, D,B,,F,F,, | 
[V:1] bd'2< f'2g' | 
[V:2] Bd2<f2g | 
[V:3] D,D, DDDD | 
[V:4] B,,B,, B,B,B,B, | 
[V:1] .f'.d'.b.c' b2 | 
[V:2] .f2 z2 z f | 
[V:3] DD, DDDD | 
[V:4] B,B,, B,B,B,B, | 
[V:1] {/a2b2} a2 z2 z2 | 
[V:2] e.c.A.B A2 | 
[V:3] EE,EE EE | 
[V:4] CC,CC CC | 
[V:1] .e'.c'.a.b a2 | 
[V:2] {/G2A2}z6 | 
[V:3] EE, EEEE | 
[V:4] CC,CC CC | 
[V:1] {/g2a2}z6 | 
[V:2] .f.d.B.c B2 | 
[V:3] FF,FF FF | 
[V:4] DD,DD DD | 
[V:1] .b.g.c.d c2 | 
[V:2] {/A2B2} z2 z2 .B.c | 
[V:3] GG,GG GG | 
[V:4] EE,EE =EE | 
[V:1] {/=B2c2}z4.b.c' | 
[V:2] .A.F.C.D C2 | 
[V:3] AA,AA GG | 
[V:4] FF,FF =EE | 
[V:1] .a.f.c.d c2 | 
[V:2] {/=B,2C2} z2 z2 .B.c | 
[V:3] AA,A,A, G,G, | 
[V:4] FF,F,F, =E,E, | 
[V:1] {/B2c2}z4.b.c' | 
[V:2] .A.F.C.D C2 | 
[V:3] A,AAA GG | 
[V:4] F,FFF =EE | 
[V:1] .a.f.d.c z2 | 
[V:2] {/=B,2C2} z2 z2 .A.F | 
[V:3] A2 z2 z2 | 
[V:4] F2 z2 z2 | 
[V:1] .D.C z2 z2 | 
[V:2] z6 | 
[V:3] z2 .A,.F, z2 | 
[V:4] z4.D,.C, | 
[V:1] z6 | 
[V:2] z6 | 
[V:3] z6 | 
[V:4] F,,4z2 | 
[V:1] B>c _d2e2 | 
[V:2] z6 | 
[V:3] z6 | 
[V:4] z6 | 
[V:1] f4_g2 | 
[V:2] z2F4 | 
[V:3] z2_C4 | 
[V:4] z2B,4 | 
[V:1] ._a._g.f.e._d.c | 
[V:2] _G4=A2 | 
[V:3] E4F2- | 
[V:4] B,4B,2 | 
[V:1] ._d.c.B z z2 | 
[V:2] B2 z2 z2 | 
[V:3] F2 z ._G.F.E | 
[V:4] B,2 z2 z2 | 
[V:1] b6- | 
[V:2] B>c _d2e2 | 
[V:3] ._D.C.B, z z2 | 
[V:4] z2 z ._G,.F,.E, | 
[V:1] b4b2- | 
[V:2] f4_g2 | 
[V:3] z6 | 
[V:4] ._D,.C,.B,,._G,,.F,,.E,, | 
[V:1] b2._d'.c'.b.a | 
[V:2] ._a._g.f.e._d.c | 
[V:3] z6 | 
[V:4] ._D,,.E,,F,,4 | 
[V:1] b2 z2 _d2 | 
[V:2] B2[B,2F2][B,2F2] | 
[V:3] z2 _D2D2 | 
[V:4] B,,2 z2 z2 | 
[V:1] c>B A2c2 | 
[V:2] [A,2F2]E2E2 | 
[V:3] E2C2A,2 | 
[V:4] .F,,2F,2F,2 | 
[V:1] B4f2 | 
[V:2] _D2F2F2 | 
[V:3] B,2_D2D2 | 
[V:4] B,2B,,2G,,2 | 
[V:1] e>_dc2e2 | 
[V:2] E2_G2G2 | 
[V:3] C2E2C2 | 
[V:4] _A,,2_A,2A,2 | 
[V:1] _d4_a2 | 
[V:2] F2_A2A2 | 
[V:3] _D2F2F2 | 
[V:4] _D2_D,2=B,,2 | 
[V:1] g>f=e2g2 | 
[V:2] =G2B2B2 | 
[V:3] =E2G2=E,2 | 
[V:4] C,2C2C,2 | 
[V:1] f4g2 | 
[V:2] _A2F2G2 | 
[V:3] F,>G,_A,2B,2 | 
[V:4] F,,>G,,_A,,2B,,2 | 
[V:1] =a4b2 | 
[V:2] =A4B2 | 
[V:3] C4_D2 | 
[V:4] C,4_D,2 | 
[V:1] c'.=e'.e'.e'.e'.e' | 
[V:2] c=e.e.e.e .e | 
[V:3] .E._D.C.B,._A,.G, | 
[V:4] .E,._D,.C,.B,,._A,,.G,, | 
[V:1] .f'.f'.f'.e'._d'.c' | 
[V:2] .f.B._A.=A.B.F | 
[V:3] ._A,.G,.F,._G.F.E | 
[V:4] ._A,,.G,,F,,4 | 
[V:1] b>c'_d'2e'2 | 
[V:2] B>c_d2e2 | 
[V:3] ._D.C.B,.B,.B,.B, | 
[V:4] z2 z ._G,.F,.E, | 
[V:1] f'4_g'2 | 
[V:2] f4_g2 | 
[V:3] .B,.B,.B,.B.B,.B, | 
[V:4] ._D,.C,.B,,._G,,.F,,.E,, | 
[V:1] _a'._g'.f'.e'._d'.c' | 
[V:2] ._a._g.f.e._d.c | 
[V:3] .B,.B,.A,.C.F,.F | 
[V:4] .D,,.E,,F,,4 | 
[V:1] bFFFFF | 
[V:2] B2 z2 z2 | 
[V:3] B,2 z2 z2 | 
[V:4] B,,2 z2[K:clef=tenor] _D2 | 
[V:1] EFCF ff | 
[V:2] z4A2 | 
[V:3] z4E2 | 
[V:4] C>B,=A,2C2 | 
[V:1] ffff _AA | 
[V:2] B>c_d2 z2 | 
[V:3] _D>CB,4 | 
[V:4] B,4F2 | 
[V:1] _AAAA _aa | 
[V:2] z4=c2 | 
[V:3] z4_G2 | 
[V:4] E>_DC2E2 | 
[V:1] _aaaa cc | 
[V:2] _d>ef2 z2 | 
[V:3] F>E_D4 | 
[V:4] _D4_A2 | 
[V:1] BcGccc | 
[V:2] z4=e2 | 
[V:3] z4B2 | 
[V:4] G>F=E2G2 | 
[V:1] cfff'f'f' | 
[V:2] f>=ef2g2 | 
[V:3] _A>Bc2_d2 | 
[V:4] F>G_A2B2 | 
[V:1] f'f'f'f'f'f' | 
[V:2] =a4b2 | 
[V:3] e4f2 | 
[V:4] c4_d2 | 
[V:1] f'f'f'f'f'f' | 
[V:2] c'.b._a.g.f.=e | 
[V:3] _g.f.e._d.c.B | 
[V:4] e._d.c.B._A.G | 
[V:1] f'f'f'fg=a | 
[V:2] fe_dcBA | 
[V:3] cB_A_GFE | 
[V:4] _A_GFE_DC | 
[V:1] b>c'_d'2e'2 | 
[V:2] B>c_d2e2 | 
[V:3] ._D.C.B,B,B,B, | 
[V:4] [K:clef=bass]B,2 z ._G,.F,.E, | 
[V:1] f'4_g'2 | 
[V:2] f4_g2 | 
[V:3] B,B,B,BBB | 
[V:4] ._D,.C,.B,,_G,,F,,E,, | 
[V:1] ._a'._g'.f'.e'._d'.c' | 
[V:2] ._a._g.f.e._d.c | 
[V:3] BB,A,CF,F | 
[V:4] _D,,E,,2< F,,2F,, | 
[V:1] ._d'.c'.b z z2 | 
[V:2] _d2z._g.f.e | 
[V:3] F2 z2 z F | 
[V:4] B,,2 z2 z2 | 
[V:1] z6 | 
[V:2] ._d.c.B z z2 | 
[V:3] B2 z ._G.F.E | 
[V:4] z4z F, | 
[V:1] z4z F | 
[V:2] z6 | 
[V:3] ._D.C.B, z z2 | 
[V:4] B,2 z ._G,.F,.E, | 
[V:1] B_dd2d2 | 
[V:2] z F F2_G2 | 
[V:3] z B, B,2B,2 | 
[V:4] _D,C, B,,2_G,,2 | 
[V:1] ccc2c2 | 
[V:2] _GGG2F2 | 
[V:3] B,B, B,2A,2 | 
[V:4] E,,E,, C,,2F,,2 | 
[V:1] _d_d' d'd'e'e' | 
[V:2] Ff _gggg | 
[V:3] B,B BBBB | 
[V:4] B,,B, _G,G,E,E, | 
[V:1] e'e'e'e'_d'd' | 
[V:2] _ggggff | 
[V:3] _AAcccc | 
[V:4] _C,C,_A,,A,,_D,D, | 
[V:1] _d'6- | 
[V:2] _g2>._d2.g.b | 
[V:3] B.B, .B,.B,.B,.B, | 
[V:4] ._G,,._G,.G,.G,.G,.G, | 
[V:1] d'6- | 
[V:2] ._a._g.f.e.f._d | 
[V:3] ._C.C.C._D._A._c | 
[V:4] ._A,.A,.A,.A,.A,.A, | 
[V:1] d'3 _d'2d'- | 
[V:2] ._g.b._d'._d.B._G | 
[V:3] .B._D._G.B z2 | 
[V:4] B,2 z ._D,,._G,,.B,, | 
[V:1] d'_c'2c'2c'- | 
[V:2] F2 z _A_D_d | 
[V:3] z ._D,._A,._C z .F | 
[V:4] ._A,,._G,,.F,,.E,,.F,,._D,, | 
[V:1] c'b2b2b- | 
[V:2] _dd2d2d | 
[V:3] ._G2 z ._G,.B,._D | 
[V:4] ._G,,.B,,._D, z z2 | 
[V:1] bb2._g.b._d' | 
[V:2] ._G.B._d z z2 | 
[V:3] z6 | 
[V:4] z6 | 
[V:1] z b2b2b- | 
[V:2] z _d2d2d | 
[V:3] z2 z .F,.B,._D | 
[V:4] .F,,.B,,._D, z z2 | 
[V:1] bb2 .f.b._d' | 
[V:2] .F.B._d z z2 | 
[V:3] z6 | 
[V:4] z6 | 
[V:1] z [B2b2] =egb | 
[V:2] z2 =EGB z | 
[V:3] z =E,G,B, z2 | 
[V:4] =E,,G,,B,, z z2 | 
[V:1] z [B2b2] _dfb | 
[V:2] z2 _DFB z | 
[V:3] z _D,F,B, z2 | 
[V:4] _D,,F,,B,, z z2 | 
[V:1] [B2b2] z2 z2 | 
[V:2] [G2B2] z2 z2 | 
[V:3] =E,2 z2 z2 | 
[V:4] .C,,.=E,,.G,,.E,,.F,,.D,, | 
[V:1] z6 | 
[V:2] [G2B2] z2 z2 | 
[V:3] z6 | 
[V:4] .A,,.F,,.G,,.=E,,.B,,.G,, | 
[V:1] z6 | 
[V:2] z6 | 
[V:3] z6 | 
[V:4] A,,F,,C,A,,B,,G,, | 
[V:1] z6 | 
[V:2] z6 | 
[V:3] z2 .B,.G,.C.=E, | 
[V:4] D,B,,G,,B,,=E,,C, | 
[V:1] z6 | 
[V:2] z6 | 
[V:3] .F,.A,.C.A,.B,.G, | 
[V:4] A,,C,F,,A,,G,,B,, | 
[V:1] z6 | 
[V:2] z6 | 
[V:3] DB,CA,EC | 
[V:4] B,,D,A,,C,C,E, | 
[V:1] z6 | 
[V:2] z6 | 
[V:3] DB,FDEC | 
[V:4] B,,D,D,F,C,E, | 
[V:1] z2 .e.c.f.A | 
[V:2] z4.C.c | 
[V:3] GECEA,F | 
[V:4] E,G,E,G,[E,F,]E, | 
[V:1] .B.d.f.d.e.c | 
[V:2] .B.F.G.F.G.E | 
[V:3] FD, D,G,E,G, | 
[V:4] D,B,,=B,,D,C,E, | 
[V:1] g=efd_af | 
[V:2] AGAFB_A | 
[V:3] =E,A,F,A,F,B, | 
[V:4] ^C,=E,D,F,D,F, | 
[V:1] gebg=af | 
[V:2] BGcBcA | 
[V:3] G,B,G,CA,C | 
[V:4] E,G,=E,G,F,A, | 
[V:1] c'abge'e' | 
[V:2] dcdBeB | 
[V:3] A,DB,DB,E | 
[V:4] ^F,A,G,B,G,B, | 
[V:1] e'e'e'e'e'e' | 
[V:2] ceeeee | 
[V:3] Eccccc | 
[V:4] .A,.C.E.D.C.B, | 
[V:1] e'e'e'e'e'e' | 
[V:2] eeeeee | 
[V:3] cccccc | 
[V:4] .A,.G,.F,.E,.D,.C, | 
[V:1] =e'e'e'e'e'e' | 
[V:2] [c=e][ce][ce][ce][ce][ce] | 
[V:3] [GB][GB][GB][GB][GB][GB] | 
[V:4] B,,A,,G,,D,C,B,, | 
[V:1] f'f'f'f'f'f' | 
[V:2] [cf]F FFGA | 
[V:3] [FA] B,A,G,F,E, | 
[V:4] A,,G,,F,,E,,D,,C,, | 
[V:1] B6 | 
[V:2] [D6B6] | 
[V:3] D,6 | 
[V:4] B,,B,,B,,2B,,2 | 
[V:1] d6 | 
[V:2] F6 | 
[V:3] F,6 | 
[V:4] B,,B,,B,,2B,,2 | 
[V:1] c2e2A2 | 
[V:2] E2_G2F2 | 
[V:3] _G,2A,2[C2E2] | 
[V:4] B,,B,,B,,B,,B,,B,, | 
[V:1] B2> .f2.b.d' | 
[V:2] F2> z2 z2 | 
[V:3] [B,2D2]> z2 z2 | 
[V:4] B,,2 z2 z2 | 
[V:1] .c'.b.a z z2 | 
[V:2] z2 z .=G.A.F | 
[V:3] z6 | 
[V:4] z6 | 
[V:1] z6 | 
[V:2] .B.d.f z z2 | 
[V:3] z2 z .F,.B,.D | 
[V:4] z6 | 
[V:1] z6 | 
[V:2] z6 | 
[V:3] .C.A,.B, z z2 | 
[V:4] z2 z .G,,.C,.=E,, | 
[V:1] z2 f2e2 | 
[V:2] z4B2 | 
[V:3] z2 F,2G,2 | 
[V:4] F,,2 z2 z2 | 
[V:1] e6- | 
[V:2] _A6 | 
[V:3] _A,A,A,2A,2 | 
[V:4] [K:clef=tenor]C6 | 
[V:1] e6- | 
[V:2] c6 | 
[V:3] _A,A,A,2A,2 | 
[V:4] E6 | 
[V:1] e6- | 
[V:2] B2_d2G2 | 
[V:3] _A,A,A,A,A,A, | 
[V:4] _D2F2B,2 | 
[V:1] e>d e2 z2 | 
[V:2] _A2> z2 z2 | 
[V:3] _A,2> z2 z2 | 
[V:4] C2>[K:clef=bass] E,,2_A,,C, | 
[V:1] z6 | 
[V:2] z6 | 
[V:3] z2 z .F,.G,.E, | 
[V:4] .B,,._A,,.G,, z z2 | 
[V:1] z6 | 
[V:2] z2 z .e._a.c' | 
[V:3] ._G,.C.E z z2 | 
[V:4] z6 | 
[V:1] z2 z .f'.g'.d' | 
[V:2] .b.g._a.c.G._A | 
[V:3] z2 z ._A.B.B, | 
[V:4] z6 | 
[V:1] e'4_d'2 | 
[V:2] G2e2_d2 | 
[V:3] E2 z2 z2 | 
[V:4] z6 | 
[V:1] _c'6 | 
[V:2] _c6 | 
[V:3] [^D-^F][DF][D2F2][D2F2] | 
[V:4] _CCC2C2 | 
[V:1] e'6 | 
[V:2] e6 | 
[V:3] [E^F][EF][E2F2][E2F2] | 
[V:4] _CCC2C2 | 
[V:1] _d'2_f'2b2 | 
[V:2] _d2_f2B2 | 
[V:3] [=E^F][EF][EF][EF][EF][EF] | 
[V:4] _CCCCCC | 
[V:1] _c'4b2 | 
[V:2] _c4B2 | 
[V:3] [^D2^F2] E,2E,2 | 
[V:4] _C2 _C,2C,2 | 
[V:1] a6- | 
[V:2] [F6A6]- | 
[V:3] E,6- | 
[V:4] =C,6- | 
[V:1] a6 | 
[V:2] [F6A6] | 
[V:3] E,6 | 
[V:4] C,6 | 
[V:1] b2a2b2 | 
[V:2] B2A2B2 & F6 | 
[V:3] D,2E,2D,2 | 
[V:4] B,,2C,2B,,2 | 
[V:1] e'>c'b2a2 | 
[V:2] e>c B2A2 | 
[V:3] G,2D,2C,2 | 
[V:4] E,,2F,,2E,,2 | 
[V:1] f'2e'2d'2 | 
[V:2] f2e2d2 | 
[V:3] F,2C2B,2 & x2F,4 | 
[V:4] D,,2A,,2B,,2 | 
[V:1] g'>e' d'2c'2 | 
[V:2] g>e d2c2 | 
[V:3] E>CB,2A,2 | 
[V:4] E,2F,2F,,2 | 
[V:1] [Ac'][Ac'][A2c'2] z2 | 
[V:2] [Ac][Ac][A2c2] z2 | 
[V:3] EEE2 z2 | 
[V:4] ^F,,F,,F,,2 z2 | 
[V:1] z6 | 
[V:2] z6 | 
[V:3] z6 | 
[V:4] z6 | 
[V:1] AAA2 z2 | 
[V:2] CC=B,2 z2 | 
[V:3] ^FFF2 z2 | 
[V:4] E,E,E,2 z2 | 
[V:1] z6 | 
[V:2] z6 | 
[V:3] z6 | 
[V:4] z6 | 
[V:1] G2^F2=E2 | 
[V:2] =B,2^D2=E2 | 
[V:3] =B,2A,2G,2 | 
[V:4] =E,2=B,,2C,2 | 
[V:1] A>F =E2^D2 | 
[V:2] C2=B,2B,2 | 
[V:3] C2G,2^F,2 | 
[V:4] A,,2=B,,2A,,2 | 
[V:1] =B2A2G2 | 
[V:2] =B,2B,2B,2 | 
[V:3] =E,2^D,2E,2- | 
[V:4] G,,2^F,,2=E,,2 | 
[V:1] c>A G2^F2 | 
[V:2] C>^F =E2^D2 | 
[V:3] E,>C =B,2A,2 | 
[V:4] A,,2=B,,2B,,2 | 
[V:1] _GGGGGG | 
[V:2] EEEEEE | 
[V:3] A,A,A,A,A,A, | 
[V:4] C,C,C,C,C,C, | 
[V:1] _GGGGGG | 
[V:2] EEEEEE | 
[V:3] A,A,A,A,A,A, | 
[V:4] _C,C,C,C,C,C, | 
[V:1] _GGGGGG | 
[V:2] EEEEEE | 
[V:3] B,B,CCCC | 
[V:4] _C,B,,A,,A,,_A,,A,, | 
[V:1] =GG_AA=AA | 
[V:2] EEEEEE | 
[V:3] CCCCCC | 
[V:4] G,,G,,_G,,G,,F,,F,, | 
[V:1] eeeeee | 
[V:2] AAAAAA | 
[V:3] CCCCCC | 
[V:4] F,F,F,F,F,F, | 
[V:1] [ca][ca][ca][ca][ca][ca] | 
[V:2] [Fe][Fe][Fe][Fe][Fe][Fe] | 
[V:3] [CE][CE][CE][CE][CE][CE] | 
[V:4] F,,F,,F,,F,,F,,F,, | 
[V:1] [db]bbfbd' | 
[V:2] [F2d2] z2 z2 | 
[V:3] [B,D]D,D,D,D,D, | 
[V:4] B,,B,,B,,B,,B,,B,, | 
[V:1] c'bagaf | 
[V:2] ccc z z2 | 
[V:3] F,F,F,F,F,F, | 
[V:4] E,E,E,E,E,E, | 
[V:1] bd'f'f'f'f' | 
[V:2] BBBFBd | 
[V:3] F,F,F,F,F,F, | 
[V:4] D,D,D,D,D,D, | 
[V:1] f'f'f'f'f'f' | 
[V:2] edcBcA | 
[V:3] E,E,E,E,E,E, | 
[V:4] C,C,C,C,C,C, | 
[V:1] f'f'f'f'f'f' | 
[V:2] [df][df][df][df][df][df] | 
[V:3] D,B,B,F,B,D | 
[V:4] B,,B,,B,,F,,B,,D, | 
[V:1] f'6- | 
[V:2] [ef][ef][ef][ef][ef][ef] | 
[V:3] CB,A,G,A,F, | 
[V:4] C,B,,A,,G,,A,,F,, | 
[V:1] f'6- | 
[V:2] [df][df][df][df][df][df] | 
[V:3] B,B,B,B,DF | 
[V:4] B,,D,F, z z2 | 
[V:1] f'2> b2d'f' | 
[V:2] Bdf z z2 | 
[V:3] z6 | 
[V:4] z6 | 
[V:1] b'2 z2 z2 | 
[V:2] Bdf z z2 | 
[V:3] z6 | 
[V:4] z6 | 
[V:1] [E2A2] z2 z2 | 
[V:2] [C2E2] z2 z2 | 
[V:3] [F,2C2] z2 z2 | 
[V:4] F,2 z2 z2 | 
[V:1] _ggg2 z2 | 
[V:2] z6 | 
[V:3] z6 | 
[V:4] z6 | 
[V:1] z6 | 
[V:2] =EEE2 z2 | 
[V:3] z6 | 
[V:4] z6 | 
[V:1] z6 | 
[V:2] =EEE2 z2 | 
[V:3] F,F,F,2 z2 | 
[V:4] z6 | 
[V:1] [B,D][B,D][B,D][B,D][B,D][B,D] | 
[V:2] B,B,B,B,B,B, | 
[V:3] F,F,F,F,F,F, | 
[V:4] B,,B,,B,,B,,B,,B,, | 
[V:1] [D6d6] | 
[V:2] [D6B6] | 
[V:3] [D6F6] | 
[V:4] B,6 | 
[V:1] d'6 | 
[V:2] [d6b6] | 
[V:3] [F,6B,6] | 
[V:4] B,,6 | 
[V:1] D4z2 |]  
[V:2] B,4z2 |]  
[V:3] F,4z2 |]  
[V:4] B,,4z2 |]  


